file/after-effects.svg

<svg clip-rule="evenodd" fill-rule="evenodd" stroke-linejoin="round" stroke-miterlimit="1.41421" viewBox="0 0 560 400" xmlns="http://www.w3.org/2000/svg" xmlns:xlink="http://www.w3.org/1999/xlink"><radialGradient id="a" cx="97.71" cy="81.29" gradientUnits="userSpaceOnUse" r="143.43"><stop offset="0" stop-color="#160a2a" stop-opacity=".85"/><stop offset=".77" stop-color="#160a2a"/><stop offset="1" stop-color="#160a2a"/></radialGradient><g transform="matrix(1.125 0 0 1.125 145 68.375)"><path d="m10 10h220v214h-220z" fill="url(#a)"/><g fill="#8781bd"><path d="m0 0v234h240v-234zm10 10h220v214h-220z"/><path d="m67.84 132.5-7.92 29.86c-.17.83-.5 1.14-1.49 1.14h-14.68c-1 0-1.16-.33-1-1.48l28.39-99.34c.49-1.81.82-3.24 1-8.19 0-.66.33-1 .82-1h21c.65 0 1 .17 1.15 1l31.85 107.69c.16.83 0 1.32-.83 1.32h-16.5c-.82 0-1.32-.31-1.48-1l-8.25-30zm28.06-16.23c-2.8-11.06-9.59-35.31-12.06-47h-.16c-2.15 11.71-7.56 31.5-11.69 47zm53.61 10.23c.16 13.53 6.6 22.6 21.78 22.6 5.596.154 11.16-.903 16.31-3.1.66-.33 1.15-.16 1.15.66v12.54c.062.799-.323 1.57-1 2-5.28 2.64-11.85 3.79-20.1 3.79-26.4 0-36.3-19.46-36.3-41.25 0-23.59 12.2-42.89 33.66-42.89 21.78 0 29.37 18.31 29.37 33.16.105 3.54-.173 7.08-.83 10.56-.046.699-.62 1.256-1.32 1.28-5.535.548-11.099.769-16.66.66zm20.29-13.75c5.12 0 6.93 0 7.43-.16 0-.66.16-1.23.16-1.73 0-5.44-2.64-15.43-13-15.43-9.57 0-13.7 8.41-14.69 17.32z"/></g></g></svg>

<?xml version="1.0" encoding="UTF-8" standalone="no"?>
<!DOCTYPE svg PUBLIC "-//W3C//DTD SVG 1.1//EN" "http://www.w3.org/Graphics/SVG/1.1/DTD/svg11.dtd">
<svg width="100%" height="100%" viewBox="0 0 560 400" version="1.1" xmlns="http://www.w3.org/2000/svg" xmlns:xlink="http://www.w3.org/1999/xlink" xml:space="preserve" xmlns:serif="http://www.serif.com/" style="fill-rule:evenodd;clip-rule:evenodd;stroke-linejoin:round;stroke-miterlimit:1.41421;">
    <g transform="matrix(1.125,0,0,1.125,145,68.375)">
        <rect x="10" y="10" width="220" height="214" style="fill:url(#_Radial1);"/>
        <path d="M0,0L0,234L240,234L240,0L0,0ZM10,10L230,10L230,224L10,224L10,10Z" style="fill:rgb(135,129,189);"/>
        <path d="M67.84,132.5L59.92,162.36C59.75,163.19 59.42,163.5 58.43,163.5L43.75,163.5C42.75,163.5 42.59,163.17 42.75,162.02L71.14,62.68C71.63,60.87 71.96,59.44 72.14,54.49C72.14,53.83 72.47,53.49 72.96,53.49L93.96,53.49C94.61,53.49 94.96,53.66 95.11,54.49L126.96,162.18C127.12,163.01 126.96,163.5 126.13,163.5L109.63,163.5C108.81,163.5 108.31,163.19 108.15,162.5L99.9,132.5L67.84,132.5ZM95.9,116.27C93.1,105.21 86.31,80.96 83.84,69.27L83.68,69.27C81.53,80.98 76.12,100.77 71.99,116.27L95.9,116.27ZM149.51,126.5C149.67,140.03 156.11,149.1 171.29,149.1C176.886,149.254 182.45,148.197 187.6,146C188.26,145.67 188.75,145.84 188.75,146.66L188.75,159.2C188.812,159.999 188.427,160.77 187.75,161.2C182.47,163.84 175.9,164.99 167.65,164.99C141.25,164.99 131.35,145.53 131.35,123.74C131.35,100.15 143.55,80.85 165.01,80.85C186.79,80.85 194.38,99.16 194.38,114.01C194.485,117.55 194.207,121.09 193.55,124.57C193.504,125.269 192.93,125.826 192.23,125.85C186.695,126.398 181.131,126.619 175.57,126.51L149.51,126.5ZM169.8,112.75C174.92,112.75 176.73,112.75 177.23,112.59C177.23,111.93 177.39,111.36 177.39,110.86C177.39,105.42 174.75,95.43 164.39,95.43C154.82,95.43 150.69,103.84 149.7,112.75L169.8,112.75Z" style="fill:rgb(135,129,189);"/>
    </g>
    <defs>
        <radialGradient id="_Radial1" cx="0" cy="0" r="1" gradientUnits="userSpaceOnUse" gradientTransform="matrix(143.43,0,0,143.43,97.71,81.29)"><stop offset="0" style="stop-color:rgb(22,10,42);stop-opacity:0.85"/><stop offset="0.77" style="stop-color:rgb(22,10,42);stop-opacity:1"/><stop offset="1" style="stop-color:rgb(22,10,42);stop-opacity:1"/></radialGradient>
    </defs>
</svg>
